X: 131
T: Moose Aboot the Hoose
C: Bert Murray
R: reel
B: Bert Murray's "Bon Accord Collection" 1999 p.13
%
Z: 2011 John Chambers <jc:trillian.mit.edu>
M: 4/4
L: 1/8
K: F
uA |\
F2(CF) A,FCF | AcBA BGGF | E2(CE) G,ECE | (GA/B/) (AG) AFFA |
F2(CF) A,FCF | AcBA BGGF | EFGF ECEG | (AB/c/) (GB) AF F ||
uc |\
f>c .c.c/.c/ (A>F) .F.F/.F/ | (CF)A,C FAcA | BGGF EGGF | EGc=B dcde |
f>c .c.c/.c/ (A>F) .F.F/.F/ | (CF)A,C FAcA | BGGF ECEG | (AB/c/) (GB) AF F |]

%%sep 2 1 500

